X: 27
T: Paul's Pipes
C: J.H.
N: Who is "J.H."?
R: reel
Z: 2014 John Chambers <jc:trillian.mit.edu>
S: printed copy of unknown origin
S: Page from Boston Slow Scottish Session collection
N: The original has K:Amix, with naturals on all the c notes but two.
M: C|
L: 1/8
K: Ador
f |\
ed^cd efg2 | dcBc dGGf |\
ed^cd efge | aged eAA :|\
a |\
gabg aeeg | dcBc dGGa |
gabg aeeg | GABd eAAa |\
gabg aeeg | GABc dBGa |\
gefd efge | aged eAA |]
